!!!COM: Palestrina, Giovanni Perluigi da
!!!OPR: Missa O admirabile commercium
!!!OMD: Benedictus
!!!OTL: Hosanna
**kern	**kern	**kern	**kern	**kern
*Ibass	*Itenor	*Itenor	*Icalto	*Icant
!Bassus	!Tenor 2	!Tenor 1	!Altus	!Cantus
*clefF4	*clefGv2	*clefGv2	*clefG2	*clefG2
*k[]	*k[]	*k[]	*k[]	*k[]
*G:mix	*G:mix	*G:mix	*G:mix	*G:mix
*M4/2	*M4/2	*M4/2	*M4/2	*M4/2
=44	=44	=44	=44	=44
0r	0G	0g	0b	0dd
=45	=45	=45	=45	=45
0r	1d	1f	1.a	1dd
.	1A	1e	.	1cc#
.	.	.	2a	.
=46	=46	=46	=46	=46
0r	1d	1f#	1a	1dd
.	1G	2.g	1b	1dd
.	.	4f	.	.
=47	=47	=47	=47	=47
0r	0c	2e	1.cc	0ee
.	.	2.a	.	.
.	.	4g	.	.
.	.	[2g	2b	.
=48	=48	=48	=48	=48
0D	1d	2g]	0a	[0dd
.	.	4f#	.	.
.	.	4e	.	.
.	2r	1f#	.	.
.	[2d	.	.	.
=49	=49	=49	=49	=49
1G	2d]	2g	1b	1dd]
.	1g	2G	.	.
1D	.	1A	1a	2r
.	2f#	.	.	[2dd
=50	=50	=50	=50	=50
1G	2.g	1B	2r	2dd]
.	.	.	1g	2.gg
.	4f	.	.	.
1C	4e	[1c	.	.
.	4d	.	.	4ff
.	4c	.	[2cc	4ee
.	4B	.	.	4dd
=51	=51	=51	=51	=51
0F	2A	1c]	4cc]	2.cc
.	.	.	4b	.
.	2c	.	4a	.
.	.	.	4g	4b
.	2d	1r	2f	1a
.	[2c	.	2e	.
=52	=52	=52	=52	=52
1G	2c]	2r	1d	2g
.	2B	1g	.	2dd
1C	1c	.	2c	2.ee
.	.	2e	2g	.
.	.	.	.	4dd
=53	=53	=53	=53	=53
0r	1r	2f	2a	2cc
.	.	2g	1g	2b
.	2r	1d	.	1a
.	[2d	.	2f#	.
=54	=54	=54	=54	=54
2r	2d]	1G	1g	2b
1G	2.g	.	.	2dd
.	.	1r	2r	2.gg
.	4f	.	.	.
[2c	4e	.	[2g	.
.	4d	.	.	4ff
=55	=55	=55	=55	=55
4c]	1c	0r	2g]	4ee
4B	.	.	.	4dd
4A	.	.	2.cc	4cc
4G	.	.	.	4b
2.F	2c	.	.	2a
.	.	.	4b	.
.	[2c	.	4a	2cc
4E	.	.	4g	.
=56	=56	=56	=56	=56
2D	2c]	2r	2f	1dd
2G	2B	1G	2d	.
1C	1c	.	4g	1ee
.	.	.	4f	.
.	.	[2g	4e	.
.	.	.	4d	.
=57	=57	=57	=57	=57
0C	2G	4g]	4c	2.gg
.	.	4f	4d	.
.	2.c	4e	4e	.
.	.	4d	4f	4ff
.	.	2c	2g	1ee
.	4B	.	.	.
.	4A	2c	[2a	.
.	4G	.	.	.
=58	=58	=58	=58	=58
0D	2F#	2A	2a]	0dd
.	2G	2B	1g	.
.	1A	1d	.	.
.	.	.	2f#	.
=59	=59	=59	=59	=59
0G	0G	0d	0g	0b
==	==	==	==	==
*-	*-	*-	*-	*-
!!!CDT: 1525/^1526/-1594/2/2
!!!OCY: Italia
!!!AGN: Mass (Parody)
!!!AST: renaissance, vocal
!!!ASW: Motet 1569 (Palestrina)
!!!PWK: Masses, Book 8
!!!RNB: Cadence finals: C,D
!!!YOR: Le Opere Complete, v. 24, p. 52
!!!YOO: Rome, Italy: Fratelli Scalera
!!!END: 1992//
!!!EED: John Miller
!!!YEC: Copyright 2000, John Miller
!!!YEN: United States of America
!!!YEM: Rights to all derivative electronic formats reserved.
!!!YEM: Refer to licensing agreement for further details.
!!!YEM: This file must be accompanied by the licensing agreement.
!!!YEM: A copy of the licensing agreement may be found at http://www.music-cog.ohio-state.edu/HumdrumDatabases/Palestrina/license.txt
!!!EMD: converted to Humdrum by Bret Aarden
